img/vector-9.svg

<svg fill="none" height="32" viewBox="0 0 102 32" width="102" xmlns="http://www.w3.org/2000/svg"><path d="m27.9068 28.1338-25.32051-16.3171c-2.253921-1.4525-2.45612-4.67825-.40095-6.39644 1.07497-.89872 2.54399-1.16187 3.8647-.6923l30.31936 10.77984c3.3248 1.1822 6.9612 1.1288 10.2469-.1504l37.4335-14.573487c2.3059-.897732 4.9092-.572767 6.9279.864797l10.1633 7.23778-53.1273 21.19881c-6.6193 2.6412-14.108 1.9144-20.1069-1.9515z" fill="#0d06c1"/></svg>

<svg width="102" height="32" viewBox="0 0 102 32" fill="none" xmlns="http://www.w3.org/2000/svg">
<path d="M27.9068 28.1338L2.58629 11.8167C0.332369 10.3642 0.13017 7.13845 2.18534 5.42026C3.26031 4.52154 4.72933 4.25839 6.05004 4.72796L36.3694 15.5078C39.6942 16.69 43.3306 16.6366 46.6163 15.3574L84.0498 0.783913C86.3557 -0.113819 88.959 0.211146 90.9777 1.64871L101.141 8.88649L48.0137 30.0853C41.3944 32.7265 33.9057 31.9997 27.9068 28.1338Z" fill="#0D06C1"/>
</svg>
